src/images/svg/symbols/jump-10-new.svg

<svg width="32" height="32" viewBox="0 0 32 32" fill="none" xmlns="http://www.w3.org/2000/svg">
<path fill-rule="evenodd" clip-rule="evenodd" d="M4 12V14H2V12H4Z" fill="#FF444F"/>
<path fill-rule="evenodd" clip-rule="evenodd" d="M8 12V16H6V12H8Z" fill="#FF444F"/>
<path fill-rule="evenodd" clip-rule="evenodd" d="M12 12V29H10V12H12Z" fill="#FF444F"/>
<path fill-rule="evenodd" clip-rule="evenodd" d="M16 26V32H14V26H16Z" fill="#FF444F"/>
<path fill-rule="evenodd" clip-rule="evenodd" d="M20 22V29H18V22H20Z" fill="#85ACB0"/>
<path fill-rule="evenodd" clip-rule="evenodd" d="M24 0V26H22V0H24Z" fill="#85ACB0"/>
<path fill-rule="evenodd" clip-rule="evenodd" d="M28 4V12H26V4H28Z" fill="#85ACB0"/>
<path fill-rule="evenodd" clip-rule="evenodd" d="M32 8V12H30V8H32Z" fill="#85ACB0"/>
<path d="M0 2C0 0.89543 0.895431 0 2 0H12C13.1046 0 14 0.895431 14 2V8C14 9.10457 13.1046 10 12 10H2C0.89543 10 0 9.10457 0 8V2Z" fill="#0E0E0E"/>
<path d="M2.95442 8.00031V7.03231H4.45842V3.28831H4.38642L3.25042 4.77631L2.48242 4.17631L3.81842 2.41631H5.65842V7.03231H6.84242V8.00031H2.95442Z" fill="white"/>
<path d="M9.3993 8.09631C8.66863 8.09631 8.1273 7.84298 7.7753 7.33631C7.4233 6.82965 7.2473 6.12031 7.2473 5.20831C7.2473 4.29631 7.4233 3.58698 7.7753 3.08031C8.1273 2.57365 8.66863 2.32031 9.3993 2.32031C10.13 2.32031 10.6713 2.57365 11.0233 3.08031C11.3753 3.58698 11.5513 4.29631 11.5513 5.20831C11.5513 6.12031 11.3753 6.82965 11.0233 7.33631C10.6713 7.84298 10.13 8.09631 9.3993 8.09631ZM9.3993 7.08031C9.7193 7.08031 9.94063 6.96298 10.0633 6.72831C10.186 6.49365 10.2473 6.16298 10.2473 5.73631V4.68031C10.2473 4.25365 10.186 3.92298 10.0633 3.68831C9.94063 3.45365 9.7193 3.33631 9.3993 3.33631C9.0793 3.33631 8.85796 3.45365 8.7353 3.68831C8.61263 3.92298 8.5513 4.25365 8.5513 4.68031V5.73631C8.5513 6.16298 8.61263 6.49365 8.7353 6.72831C8.85796 6.96298 9.0793 7.08031 9.3993 7.08031Z" fill="white"/>
</svg>

<svg width="32" height="32" fill="none" xmlns="http://www.w3.org/2000/svg"><path fill-rule="evenodd" clip-rule="evenodd" d="M4 12v2H2v-2h2ZM8 12v4H6v-4h2ZM12 12v17h-2V12h2ZM16 26v6h-2v-6h2Z" fill="#FF444F"/><path fill-rule="evenodd" clip-rule="evenodd" d="M20 22v7h-2v-7h2ZM24 0v26h-2V0h2ZM28 4v8h-2V4h2ZM32 8v4h-2V8h2Z" fill="#85ACB0"/><path d="M0 2a2 2 0 0 1 2-2h10a2 2 0 0 1 2 2v6a2 2 0 0 1-2 2H2a2 2 0 0 1-2-2V2Z" fill="#0E0E0E"/><path d="M2.954 8v-.968h1.504V3.288h-.072L3.25 4.776l-.768-.6 1.336-1.76h1.84v4.616h1.184V8H2.954ZM9.4 8.096c-.731 0-1.273-.253-1.625-.76-.352-.506-.528-1.216-.528-2.128 0-.912.176-1.621.528-2.128.352-.506.894-.76 1.624-.76.731 0 1.272.254 1.624.76.352.507.528 1.216.528 2.128 0 .912-.176 1.622-.528 2.128-.352.507-.893.76-1.624.76Zm0-1.016c.32 0 .54-.117.663-.352.123-.234.184-.565.184-.992V4.68c0-.426-.061-.757-.184-.992-.122-.234-.344-.352-.664-.352-.32 0-.541.118-.664.352-.122.235-.184.566-.184.992v1.056c0 .427.062.758.184.992.123.235.344.352.664.352Z" fill="#fff"/></svg>
